X: 3323
M: C
L: 1/8
K: D
(uAG) |\
fafd egec | d2d2 d2 :|
|: (fd) |\
cABc d2(fd) | cABc d2(AG) |\
fafd egec | d2d2 d2 :|



